Flat-ZOMG-dark/status/symbolic/display-brightness-off-symbolic.svg

<svg xmlns="http://www.w3.org/2000/svg" width="16" height="16" version="1.1">
 <defs>
  <style id="current-color-scheme" type="text/css">
   .ColorScheme-Text { color:#dfdfdf; } .ColorScheme-Highlight { color:#367bf0; } .ColorScheme-NeutralText { color:#ffcc44; } .ColorScheme-PositiveText { color:#3db47e; } .ColorScheme-NegativeText { color:#dd4747; }
  </style>
 </defs>
 <path style="opacity:.35;fill:currentColor" class="ColorScheme-Text" d="M 8.00015,0.72100005 5.81065,3.0003 H 3.0001499 V 5.8107999 L 0.72085,8.0002999 3.0001499,10.221 V 13 H 5.81065 l 2.1895,2.279 2.221,-2.279 h 2.779 v -2.779 l 2.279,-2.2207001 -2.279,-2 V 3.0003 h -2.779 z m 0,3.27929995 c 2.21,0 4,1.7899999 4,3.9999999 C 12.00015,10.21 10.21015,12 8.00015,12 5.7901499,12 4.0001499,10.21 4.0001499,8.0002999 c 0,-2.21 1.79,-3.9999999 4.0000001,-3.9999999 z m 0,0.9999999 c -1.6569,0 -3,1.3431 -3,3 0,1.6569 1.3431,2.9997001 3,2.9997001 z"/>
</svg>

<svg xmlns="http://www.w3.org/2000/svg" width="16" height="16" version="1.1">
 <path style="fill:#5c616c;opacity:.35" d="M 8,0.721 5.8105,3.0003 H 3 V 5.8108 L 0.7207,8.0003 3,10.221 V 13 H 5.8105 L 8,15.279 10.221,13 H 13 V 10.221 L 15.279,8.0003 13,6.0003 V 3.0003 H 10.221 Z M 8,4.0003 C 10.21,4.0003 12,5.7903 12,8.0003 12,10.21 10.21,12 8,12 5.79,12 4,10.21 4,8.0003 4,5.7903 5.79,4.0003 8,4.0003 Z M 8,5.0003 C 6.3431,5.0003 5,6.3434 5,8.0003 5,9.6572 6.3431,11 8,11 Z"/>
</svg>
